app/dist/common/images/nisshinbo.svg

<svg height="18" viewBox="0 0 18 18" width="18" xmlns="http://www.w3.org/2000/svg"><path d="m0 0h18v18h-18z" fill="#f0f3fa"/><path d="m11.81 3.02a.5.5 0 0 0 .12.02v2.45c-.08.04-.16.04-.24.04h-.2v-2.53h.2zm-1.41 1.25c0-.52.28-.95.71-1.15v2.3c-.43-.2-.71-.64-.71-1.15zm1.94-1.11v2.24c.4-.23.67-.63.67-1.1a1.46 1.46 0 0 0 -.67-1.15zm-1.34 10.84v-8h-.5v4.4l-2.9-4.4h-2.6v8h2v-4.92l3.41 4.92zm.54-8h.57v8h-.57zm1.46 0h-.47v8h.47z" fill="#bc173c"/></svg>

<!-- by TradingView --><svg width="18" height="18" viewBox="0 0 18 18" xmlns="http://www.w3.org/2000/svg"><path fill="#F0F3FA" d="M0 0h18v18H0z"/><path d="M11.81 3.02a.5.5 0 0 0 .12.02v2.45c-.08.04-.16.04-.24.04h-.2V3h.2l.12.02ZM10.4 4.27c0-.52.28-.95.71-1.15v2.3c-.43-.2-.71-.64-.71-1.15Zm1.94-1.11V5.4c.4-.23.67-.63.67-1.1a1.46 1.46 0 0 0-.67-1.15ZM11 14V6h-.5v4.4L7.6 6H5v8h2V9.08L10.41 14H11Zm.54-8h.57v8h-.57V6ZM13 6h-.47v8H13V6Z" fill="#BC173C"/></svg>
